X:1
T:Care amate
T:Care amate
T:Loreto Vittori
T:Source : Arie a voce sola del Cavalier Loreto Vittorii---Venetia--A.Vincenti---1649. Editor André Vierendeels (18/10/15).
T:Notes : Original clefs : C1, F4 Figures in BC are notated in original print
C:Vittorio Loreto
%%score 1 2
L:1/8
Q:1/4=100
M:4/4
K:C
V:1 treble nm="Soprano" snm="S"
V:2 bass nm="BC" snm="BC"
V:1
 A6 AA | B2 Bc A2 A2 | B2 BB B3 c/d/ | B3 ^G A4 | AEGF ^F4 | A2 Bc d2 dB | G2 GB d2 dc | %7
w: Ca- re a-|ma- te pu- pil- le,|un guar- do so- * *|lo vol- ge-|te, in que- sto sen'|e da- re tre- gu' al|duo- lo che l'al- ma as-|
w: Oc chi so-|li d'a- * mo- re,|i cui bei ra- * *|i, fan dol-|c'i- mie- i mar- tir,|dhe se pie- to- si mai|fi- a ch'io vi veg- gia|
 e2 ed cB AB | B2 A>G G4 | B2 cd e2 ec | A2 Ac e2 ed | f2 fe dc Bc | c2 B>A A3 d | cB cB B3 c | %14
w: sa- le on- dio _ ne _|ven- * go men',|è da- re tre- gu' al|duo- lo che l'al- ma as-|sa- le on- dio _ ne _|ven- * go men' on-|d'io _ ne _ ven- go|
w: cal- di miei- so _ _ _|_ _ _ spir,|dhe se pie- to- si mai|fi- a ch'io vi veg- gia|cal- di miei so- * * *|* * * spir, mie-|i _ _ _ so- *|
 A8 :: z EEF ^F4 | ^FF/F/ FG G2 G2 | ^G2 GG G3 A | A2 A3 BBB | BBBB B3 A | B2 B2 z2 g2 | %21
w: men'.|Io poi di- ro|lu- ci Se- re- n'e lie- te|che con un vo- stro|sguar- do voi rad- dol-|cir, voi rav- vi- var po-|te- te, un|
w: spir.|Di- ro che voi|non sol be- a- te'un co- re,|d'a- mor ar- 'et pian-|ga- to, ma che sa-|pe- re rav- vi- var chi|mo- re, con|
"^#" f2 e2 d2 c2 | B2 A2 G4- | G2 ^F2 F4 | E4 z BBc | c4 ^cc/c/ cd | d2 d2 z2 e2 | d2 c2 B2 A2 | %28
w: cor tra- fit- to|da pun- gen|_ te dar-|do, voi rad- dol-|cir, voi rav- vi- var po-|te- te, un|cor tra- fit- to|
w: lo splen- dor del|vo- stro sguar-|* do'a- ma-|ro, ma che sa-|pe- re rav- vi- var chi|mo- re, con|le splen- dor del|
 G2 F2 E4- | EF/G/ AA A3 ^G | !fermata!A8 :| %31
w: da pun- gen-|* * * * te dar- *|do.|
w: vo- stro sguar-|* * * * do'a- mo- *|re.|
V:2
 A,,8- | A,,8 |"^7  6" G,4 F,4 |"^#" E,4 ^C,4- |"^#" C,4 D,4- |"^6" D,4 B,,4 |"^6" B,,8 | %7
 C,2 D,2 E,2 C,2 |"^4   3" D,4 G,,4 |"^6" G,4 E,4 |"^#6" F,4 E,4 | D,2 E,2 F,2 D,2 | %12
"^4   3" E,4 F,4 |"^4   3" C,2 D,2 E,4 | A,,8 ::"^#6" A,,8- |"^6" A,,4 B,,4 |"^#6" B,,8 | %18
"^6" ^C,4 D,4 |"^#" E,4 ^F,4 |"^-natural" G,4 E,4 | B,2 C2 G,2 A,2 | E,2 F,2 C,4 | %23
"^4   3" A,,4 B,,4 |"^#" E,,4 E,4 |"^6""^#6" E,4 E,4 | ^F,2 G,2 C,2 C2 | G,2 A,2 E,2 F,2 | %28
"^-natural" C,2 D,2 A,,4 |"^4   3" F,,4 E,,4 | !fermata!A,,8 :| %31

